Newaita-dark/apps/48/messengerfordesktop.svg

<svg height="48" viewBox="0 0 48 48" width="48" xmlns="http://www.w3.org/2000/svg" xmlns:xlink="http://www.w3.org/1999/xlink"><linearGradient id="a"><stop offset="0" stop-opacity=".313726"/><stop offset=".222222" stop-opacity=".27451"/><stop offset="1" stop-opacity="0"/></linearGradient><radialGradient id="b" cx="450.908936" cy="189.579361" gradientTransform="matrix(.00000026 -.117199 -.210958 -.00000015 64.304023 95.392994)" gradientUnits="userSpaceOnUse" r="21.166656" xlink:href="#a"/><radialGradient id="c" cx="450.908936" cy="189.579361" gradientTransform="matrix(-.00000026 .117199 .210958 .00000015 -31.558703 -11.291223)" gradientUnits="userSpaceOnUse" r="21.166656" xlink:href="#a"/><radialGradient id="d" cx="450.908936" cy="189.579361" gradientTransform="matrix(-.00000026 -.117199 .210958 -.00000015 -31.558703 95.392994)" gradientUnits="userSpaceOnUse" r="21.166656" xlink:href="#a"/><radialGradient id="e" cx="450.908936" cy="189.579361" gradientTransform="matrix(.00000026 .117199 -.210958 .00000015 64.304017 -11.291224)" gradientUnits="userSpaceOnUse" r="21.166656" xlink:href="#a"/><linearGradient id="f" gradientTransform="matrix(.0486688 0 0 .093759 3.946397 20.158175)" gradientUnits="userSpaceOnUse" x1="255.323059" x2="255.323044" y1="233.5" y2="254.666656"><stop offset="0" stop-opacity=".27451"/><stop offset="1" stop-opacity="0"/></linearGradient><linearGradient id="g"><stop offset="0" stop-color="#82b1ff"/><stop offset="1" stop-color="#448aff"/></linearGradient><linearGradient id="h" gradientUnits="userSpaceOnUse" x1="126.656886" x2="126.656886" xlink:href="#g" y1="148.833328" y2="233.5"/><linearGradient id="i" gradientUnits="userSpaceOnUse" x1="254" x2="254" xlink:href="#g" y1="-168.666672" y2="233.5"/><linearGradient id="j"><stop offset="0" stop-color="#e0e0e0"/><stop offset="1" stop-color="#f5f5f5"/></linearGradient><linearGradient id="k" gradientTransform="matrix(.093759 0 0 -.093759 0 26.23688)" gradientUnits="userSpaceOnUse" x1="254" x2="254" xlink:href="#j" y1=".666667" y2="64.166664"/><linearGradient id="l" gradientTransform="matrix(.093759 0 0 -.093759 8.93054 26.23688)" gradientUnits="userSpaceOnUse" x1="254" x2="254" xlink:href="#j" y1=".666667" y2="64.166664"/><linearGradient id="m" gradientTransform="matrix(.093759 0 0 -.093759 -8.93054 26.23688)" gradientUnits="userSpaceOnUse" x1="254" x2="254" xlink:href="#j" y1=".666667" y2="64.166664"/><path d="m24.808594 42.050781h3.96875v-1.984375h-3.96875zm0 0" fill="url(#b)"/><path d="m7.9375 42.050781h-3.96875v1.984375h3.96875zm0 0" fill="url(#c)"/><path d="m7.9375 42.050781h-3.96875v-1.984375h3.96875zm0 0" fill="url(#d)"/><path d="m24.808594 42.050781h3.96875v1.984375h-3.96875zm0 0" fill="url(#e)"/><path d="m7.9375 41.554688h16.871094v2.480468h-16.871094zm0 0" fill="url(#f)"/><path d="m126.987873 148.840255c-2.624749-.083325-5.207836.833254-7.207645 2.541424l-74.076259 63.493937c-7.457621 6.416054-2.958051 18.623221 6.874343 18.623221h211.646456c11.373914 0 14.748591-15.415194 4.457907-20.164741l-137.611858-63.535599c-1.249881-.583278-2.666412-.916579-4.082944-.958242zm0 0" style="fill-rule:evenodd;stroke-width:3;stroke-linecap:round;stroke-linejoin:round;stroke:#212121;fill:url(#h)" transform="matrix(.093759 0 0 .093759 0 20.158175)"/><path d="m254.017409-168.671091c111.031064 0 201.064133 90.033069 201.064133 201.105795 0 111.031064-90.033069 201.064133-201.064133 201.064133-111.072726 0-201.105795-90.033069-201.105795-201.064133 0-111.072726 90.033069-201.105795 201.105795-201.105795zm0 0" fill="url(#i)" stroke="#333" stroke-linecap="round" stroke-width="3" transform="matrix(.093759 0 0 .093759 0 20.158175)"/><path d="m23.816406 42.050781c-10.445312 0-18.855468-8.410156-18.855468-18.851562 0-.0625 0-.125 0-.1875.101562 10.359375 8.472656 18.667969 18.855468 18.667969 10.382813 0 18.753906-8.308594 18.851563-18.667969v.1875c0 10.441406-8.410157 18.851562-18.851563 18.851562zm0 0" fill-opacity=".196078"/><path d="m23.816406 4.34375c-10.445312 0-18.855468 8.410156-18.855468 18.855469v.183593c.101562-10.359374 8.472656-18.667968 18.855468-18.667968 10.382813 0 18.753906 8.308594 18.851563 18.667968 0-.0625 0-.125 0-.183593 0-10.445313-8.410157-18.855469-18.851563-18.855469zm0 0" fill="#fff" fill-opacity=".392157"/><path d="m23.816406 4.203125c-10.523437 0-18.996094 8.472656-18.996094 18.996094 0 10.519531 8.472657 18.992187 18.996094 18.992187 10.519532 0 18.992188-8.472656 18.992188-18.992187 0-10.523438-8.472656-18.996094-18.992188-18.996094zm0 .28125c10.367188 0 18.710938 8.34375 18.710938 18.714844 0 10.367187-8.34375 18.710937-18.710938 18.710937-10.371094 0-18.714844-8.34375-18.714844-18.710937 0-10.371094 8.34375-18.714844 18.714844-18.714844zm0 0" fill="#212121"/><path d="m23.816406 26.175781c1.640625 0 2.976563-1.335937 2.976563-2.976562 0-1.644531-1.335938-2.980469-2.976563-2.980469-1.644531 0-2.976562 1.335938-2.976562 2.980469 0 1.640625 1.332031 2.976562 2.976562 2.976562zm0 0" fill="url(#k)"/><path d="m32.746094 26.175781c1.644531 0 2.976562-1.335937 2.976562-2.976562 0-1.644531-1.332031-2.980469-2.976562-2.980469-1.644532 0-2.976563 1.335938-2.976563 2.980469 0 1.640625 1.332031 2.976562 2.976563 2.976562zm0 0" fill="url(#l)"/><path d="m14.882812 26.175781c1.644532 0 2.976563-1.335937 2.976563-2.976562 0-1.644531-1.332031-2.980469-2.976563-2.980469-1.644531 0-2.976562 1.335938-2.976562 2.980469 0 1.640625 1.332031 2.976562 2.976562 2.976562zm0 0" fill="url(#m)"/><path d="m23.816406 20.21875c-1.652344 0-2.976562 1.328125-2.976562 2.980469 0 .125.007812.25.019531.371093.183594-1.472656 1.433594-2.605468 2.957031-2.605468 1.519532 0 2.769532 1.132812 2.953125 2.605468.015625-.121093.023438-.246093.023438-.371093 0-1.652344-1.328125-2.980469-2.976563-2.980469zm0 0" fill="#fcfcfc"/><path d="m32.746094 20.21875c-1.648438 0-2.976563 1.328125-2.976563 2.980469 0 .125.007813.25.023438.371093.179687-1.472656 1.429687-2.605468 2.953125-2.605468 1.523437 0 2.769531 1.132812 2.953125 2.605468.015625-.121093.023437-.246093.023437-.371093 0-1.652344-1.328125-2.980469-2.976562-2.980469zm0 0" fill="#fcfcfc"/><path d="m14.882812 20.21875c-1.648437 0-2.976562 1.328125-2.976562 2.980469 0 .125.007812.25.023438.371093.183593-1.472656 1.429687-2.605468 2.953124-2.605468 1.523438 0 2.773438 1.132812 2.957032 2.605468.011718-.121093.019531-.246093.019531-.371093 0-1.652344-1.324219-2.980469-2.976563-2.980469zm0 0" fill="#fcfcfc"/><path d="m20.878906 23.695312c-.027344.160157-.039062.324219-.039062.496094 0 1.648438 1.324218 2.976563 2.976562 2.976563 1.648438 0 2.976563-1.328125 2.976563-2.976563 0-.171875-.015625-.335937-.042969-.496094-.234375 1.410157-1.457031 2.480469-2.933594 2.480469-1.480468 0-2.703125-1.070312-2.9375-2.480469zm0 0" fill-opacity=".235294"/><path d="m29.808594 23.695312c-.027344.160157-.039063.324219-.039063.496094 0 1.648438 1.328125 2.976563 2.976563 2.976563 1.648437 0 2.976562-1.328125 2.976562-2.976563 0-.171875-.015625-.335937-.042968-.496094-.234376 1.410157-1.453126 2.480469-2.933594 2.480469-1.480469 0-2.703125-1.070312-2.9375-2.480469zm0 0" fill-opacity=".235294"/><path d="m11.949219 23.695312c-.027344.160157-.042969.324219-.042969.496094 0 1.648438 1.328125 2.976563 2.976562 2.976563 1.652344 0 2.976563-1.328125 2.976563-2.976563 0-.171875-.011719-.335937-.039063-.496094-.234374 1.410157-1.457031 2.480469-2.9375 2.480469-1.480468 0-2.699218-1.070312-2.933593-2.480469zm0 0" fill-opacity=".235294"/><g stroke="#212121" stroke-linecap="round" stroke-linejoin="round" stroke-width="3"><path d="m254.017409-64.181673c17.498329 0 31.746969 14.24864 31.746969 31.746969 0 17.539991-14.24864 31.788631-31.746969 31.788631-17.539991 0-31.746968-14.24864-31.746968-31.788631 0-17.498329 14.206977-31.746969 31.746968-31.746969zm0 0" fill="none" transform="matrix(.093759 0 0 -.093759 0 20.158175)"/><path d="m349.258314-64.181673c17.539992 0 31.746968 14.24864 31.746968 31.746969 0 17.539991-14.206976 31.788631-31.746968 31.788631s-31.746968-14.24864-31.746968-31.788631c0-17.498329 14.206976-31.746969 31.746968-31.746969zm0 0" fill="none" transform="matrix(.093759 0 0 -.093759 0 20.158175)"/><path d="m158.734842-64.181673c17.539991 0 31.746968 14.24864 31.746968 31.746969 0 17.539991-14.206977 31.788631-31.746968 31.788631-17.539992 0-31.746969-14.24864-31.746969-31.788631 0-17.498329 14.206977-31.746969 31.746969-31.746969zm0 0" fill="none" transform="matrix(.093759 0 0 -.093759 0 20.158175)"/></g></svg>

<?xml version="1.0" encoding="UTF-8"?>
<svg xmlns="http://www.w3.org/2000/svg" xmlns:xlink="http://www.w3.org/1999/xlink" width="48px" height="48px" viewBox="0 0 48 48" version="1.1">
<defs>
<radialGradient id="radial0" gradientUnits="userSpaceOnUse" cx="450.908936" cy="189.579361" fx="450.908936" fy="189.579361" r="21.166656" gradientTransform="matrix(0.000000261256,-0.117199,-0.210958,-0.000000152308,64.304023,95.392994)">
<stop offset="0" style="stop-color:rgb(0%,0%,0%);stop-opacity:0.313726;"/>
<stop offset="0.222222" style="stop-color:rgb(0%,0%,0%);stop-opacity:0.27451;"/>
<stop offset="1" style="stop-color:rgb(0%,0%,0%);stop-opacity:0;"/>
</radialGradient>
<radialGradient id="radial1" gradientUnits="userSpaceOnUse" cx="450.908936" cy="189.579361" fx="450.908936" fy="189.579361" r="21.166656" gradientTransform="matrix(-0.000000261256,0.117199,0.210958,0.000000152308,-31.558703,-11.291223)">
<stop offset="0" style="stop-color:rgb(0%,0%,0%);stop-opacity:0.313726;"/>
<stop offset="0.222222" style="stop-color:rgb(0%,0%,0%);stop-opacity:0.27451;"/>
<stop offset="1" style="stop-color:rgb(0%,0%,0%);stop-opacity:0;"/>
</radialGradient>
<radialGradient id="radial2" gradientUnits="userSpaceOnUse" cx="450.908936" cy="189.579361" fx="450.908936" fy="189.579361" r="21.166656" gradientTransform="matrix(-0.000000261256,-0.117199,0.210958,-0.000000152308,-31.558703,95.392994)">
<stop offset="0" style="stop-color:rgb(0%,0%,0%);stop-opacity:0.313726;"/>
<stop offset="0.222222" style="stop-color:rgb(0%,0%,0%);stop-opacity:0.27451;"/>
<stop offset="1" style="stop-color:rgb(0%,0%,0%);stop-opacity:0;"/>
</radialGradient>
<radialGradient id="radial3" gradientUnits="userSpaceOnUse" cx="450.908936" cy="189.579361" fx="450.908936" fy="189.579361" r="21.166656" gradientTransform="matrix(0.000000261256,0.117199,-0.210958,0.000000152308,64.304017,-11.291224)">
<stop offset="0" style="stop-color:rgb(0%,0%,0%);stop-opacity:0.313726;"/>
<stop offset="0.222222" style="stop-color:rgb(0%,0%,0%);stop-opacity:0.27451;"/>
<stop offset="1" style="stop-color:rgb(0%,0%,0%);stop-opacity:0;"/>
</radialGradient>
<linearGradient id="linear0" gradientUnits="userSpaceOnUse" x1="255.323059" y1="233.5" x2="255.323044" y2="254.666656" gradientTransform="matrix(0.0486688,0,0,0.093759,3.946397,20.158175)">
<stop offset="0" style="stop-color:rgb(0%,0%,0%);stop-opacity:0.27451;"/>
<stop offset="1" style="stop-color:rgb(0%,0%,0%);stop-opacity:0;"/>
</linearGradient>
<linearGradient id="linear1" gradientUnits="userSpaceOnUse" x1="116.416656" y1="148.833328" x2="116.416656" y2="233.5" gradientTransform="matrix(1,0,0,1,10.24023,0)">
<stop offset="0" style="stop-color:rgb(50.980395%,69.411767%,100%);stop-opacity:1;"/>
<stop offset="1" style="stop-color:rgb(26.666668%,54.11765%,100%);stop-opacity:1;"/>
</linearGradient>
<linearGradient id="linear2" gradientUnits="userSpaceOnUse" x1="254" y1="-168.666672" x2="254" y2="233.5" gradientTransform="matrix(1,0,0,1,0,0)">
<stop offset="0" style="stop-color:rgb(50.980395%,69.411767%,100%);stop-opacity:1;"/>
<stop offset="1" style="stop-color:rgb(26.666668%,54.11765%,100%);stop-opacity:1;"/>
</linearGradient>
<linearGradient id="linear3" gradientUnits="userSpaceOnUse" x1="254" y1="0.666667" x2="254" y2="64.166664" gradientTransform="matrix(0.093759,0,0,-0.093759,0,26.23688)">
<stop offset="0" style="stop-color:rgb(87.843138%,87.843138%,87.843138%);stop-opacity:1;"/>
<stop offset="1" style="stop-color:rgb(96.078432%,96.078432%,96.078432%);stop-opacity:1;"/>
</linearGradient>
<linearGradient id="linear4" gradientUnits="userSpaceOnUse" x1="254" y1="0.666667" x2="254" y2="64.166664" gradientTransform="matrix(0.093759,0,0,-0.093759,8.93054,26.23688)">
<stop offset="0" style="stop-color:rgb(87.843138%,87.843138%,87.843138%);stop-opacity:1;"/>
<stop offset="1" style="stop-color:rgb(96.078432%,96.078432%,96.078432%);stop-opacity:1;"/>
</linearGradient>
<linearGradient id="linear5" gradientUnits="userSpaceOnUse" x1="254" y1="0.666667" x2="254" y2="64.166664" gradientTransform="matrix(0.093759,0,0,-0.093759,-8.93054,26.23688)">
<stop offset="0" style="stop-color:rgb(87.843138%,87.843138%,87.843138%);stop-opacity:1;"/>
<stop offset="1" style="stop-color:rgb(96.078432%,96.078432%,96.078432%);stop-opacity:1;"/>
</linearGradient>
</defs>
<g id="surface1">
<path style=" stroke:none;fill-rule:nonzero;fill:url(#radial0);" d="M 24.808594 42.050781 L 28.777344 42.050781 L 28.777344 40.066406 L 24.808594 40.066406 Z M 24.808594 42.050781 "/>
<path style=" stroke:none;fill-rule:nonzero;fill:url(#radial1);" d="M 7.9375 42.050781 L 3.96875 42.050781 L 3.96875 44.035156 L 7.9375 44.035156 Z M 7.9375 42.050781 "/>
<path style=" stroke:none;fill-rule:nonzero;fill:url(#radial2);" d="M 7.9375 42.050781 L 3.96875 42.050781 L 3.96875 40.066406 L 7.9375 40.066406 Z M 7.9375 42.050781 "/>
<path style=" stroke:none;fill-rule:nonzero;fill:url(#radial3);" d="M 24.808594 42.050781 L 28.777344 42.050781 L 28.777344 44.035156 L 24.808594 44.035156 Z M 24.808594 42.050781 "/>
<path style=" stroke:none;fill-rule:nonzero;fill:url(#linear0);" d="M 7.9375 41.554688 L 24.808594 41.554688 L 24.808594 44.035156 L 7.9375 44.035156 Z M 7.9375 41.554688 "/>
<path style="fill-rule:evenodd;fill:url(#linear1);stroke-width:3;stroke-linecap:round;stroke-linejoin:round;stroke:rgb(12.941177%,12.941177%,12.941177%);stroke-opacity:1;stroke-miterlimit:4;" d="M 126.987873 148.840255 C 124.363124 148.75693 121.780037 149.673509 119.780228 151.381679 L 45.703969 214.875616 C 38.246348 221.29167 42.745918 233.498837 52.578312 233.498837 L 264.224768 233.498837 C 275.598682 233.498837 278.973359 218.083643 268.682675 213.334096 L 131.070817 149.798497 C 129.820936 149.215219 128.404405 148.881918 126.987873 148.840255 Z M 126.987873 148.840255 " transform="matrix(0.093759,0,0,0.093759,0,20.158175)"/>
<path style="fill-rule:nonzero;fill:url(#linear2);stroke-width:3;stroke-linecap:round;stroke-linejoin:miter;stroke:rgb(20%,20%,20%);stroke-opacity:1;stroke-miterlimit:4;" d="M 254.017409 -168.671091 C 365.048473 -168.671091 455.081542 -78.638022 455.081542 32.434704 C 455.081542 143.465768 365.048473 233.498837 254.017409 233.498837 C 142.944683 233.498837 52.911614 143.465768 52.911614 32.434704 C 52.911614 -78.638022 142.944683 -168.671091 254.017409 -168.671091 Z M 254.017409 -168.671091 " transform="matrix(0.093759,0,0,0.093759,0,20.158175)"/>
<path style=" stroke:none;fill-rule:nonzero;fill:rgb(0%,0%,0%);fill-opacity:0.196078;" d="M 23.816406 42.050781 C 13.371094 42.050781 4.960938 33.640625 4.960938 23.199219 C 4.960938 23.136719 4.960938 23.074219 4.960938 23.011719 C 5.0625 33.371094 13.433594 41.679688 23.816406 41.679688 C 34.199219 41.679688 42.570312 33.371094 42.667969 23.011719 C 42.667969 23.074219 42.667969 23.136719 42.667969 23.199219 C 42.667969 33.640625 34.257812 42.050781 23.816406 42.050781 Z M 23.816406 42.050781 "/>
<path style=" stroke:none;fill-rule:nonzero;fill:rgb(100%,100%,100%);fill-opacity:0.392157;" d="M 23.816406 4.34375 C 13.371094 4.34375 4.960938 12.753906 4.960938 23.199219 C 4.960938 23.257812 4.960938 23.320312 4.960938 23.382812 C 5.0625 13.023438 13.433594 4.714844 23.816406 4.714844 C 34.199219 4.714844 42.570312 13.023438 42.667969 23.382812 C 42.667969 23.320312 42.667969 23.257812 42.667969 23.199219 C 42.667969 12.753906 34.257812 4.34375 23.816406 4.34375 Z M 23.816406 4.34375 "/>
<path style=" stroke:none;fill-rule:nonzero;fill:rgb(12.941177%,12.941177%,12.941177%);fill-opacity:1;" d="M 23.816406 4.203125 C 13.292969 4.203125 4.820312 12.675781 4.820312 23.199219 C 4.820312 33.71875 13.292969 42.191406 23.816406 42.191406 C 34.335938 42.191406 42.808594 33.71875 42.808594 23.199219 C 42.808594 12.675781 34.335938 4.203125 23.816406 4.203125 Z M 23.816406 4.484375 C 34.183594 4.484375 42.527344 12.828125 42.527344 23.199219 C 42.527344 33.566406 34.183594 41.910156 23.816406 41.910156 C 13.445312 41.910156 5.101562 33.566406 5.101562 23.199219 C 5.101562 12.828125 13.445312 4.484375 23.816406 4.484375 Z M 23.816406 4.484375 "/>
<path style=" stroke:none;fill-rule:nonzero;fill:url(#linear3);" d="M 23.816406 26.175781 C 25.457031 26.175781 26.792969 24.839844 26.792969 23.199219 C 26.792969 21.554688 25.457031 20.21875 23.816406 20.21875 C 22.171875 20.21875 20.839844 21.554688 20.839844 23.199219 C 20.839844 24.839844 22.171875 26.175781 23.816406 26.175781 Z M 23.816406 26.175781 "/>
<path style=" stroke:none;fill-rule:nonzero;fill:url(#linear4);" d="M 32.746094 26.175781 C 34.390625 26.175781 35.722656 24.839844 35.722656 23.199219 C 35.722656 21.554688 34.390625 20.21875 32.746094 20.21875 C 31.101562 20.21875 29.769531 21.554688 29.769531 23.199219 C 29.769531 24.839844 31.101562 26.175781 32.746094 26.175781 Z M 32.746094 26.175781 "/>
<path style=" stroke:none;fill-rule:nonzero;fill:url(#linear5);" d="M 14.882812 26.175781 C 16.527344 26.175781 17.859375 24.839844 17.859375 23.199219 C 17.859375 21.554688 16.527344 20.21875 14.882812 20.21875 C 13.238281 20.21875 11.90625 21.554688 11.90625 23.199219 C 11.90625 24.839844 13.238281 26.175781 14.882812 26.175781 Z M 14.882812 26.175781 "/>
<path style=" stroke:none;fill-rule:nonzero;fill:rgb(98.823529%,98.823529%,98.823529%);fill-opacity:1;" d="M 23.816406 20.21875 C 22.164062 20.21875 20.839844 21.546875 20.839844 23.199219 C 20.839844 23.324219 20.847656 23.449219 20.859375 23.570312 C 21.042969 22.097656 22.292969 20.964844 23.816406 20.964844 C 25.335938 20.964844 26.585938 22.097656 26.769531 23.570312 C 26.785156 23.449219 26.792969 23.324219 26.792969 23.199219 C 26.792969 21.546875 25.464844 20.21875 23.816406 20.21875 Z M 23.816406 20.21875 "/>
<path style=" stroke:none;fill-rule:nonzero;fill:rgb(98.823529%,98.823529%,98.823529%);fill-opacity:1;" d="M 32.746094 20.21875 C 31.097656 20.21875 29.769531 21.546875 29.769531 23.199219 C 29.769531 23.324219 29.777344 23.449219 29.792969 23.570312 C 29.972656 22.097656 31.222656 20.964844 32.746094 20.964844 C 34.269531 20.964844 35.515625 22.097656 35.699219 23.570312 C 35.714844 23.449219 35.722656 23.324219 35.722656 23.199219 C 35.722656 21.546875 34.394531 20.21875 32.746094 20.21875 Z M 32.746094 20.21875 "/>
<path style=" stroke:none;fill-rule:nonzero;fill:rgb(98.823529%,98.823529%,98.823529%);fill-opacity:1;" d="M 14.882812 20.21875 C 13.234375 20.21875 11.90625 21.546875 11.90625 23.199219 C 11.90625 23.324219 11.914062 23.449219 11.929688 23.570312 C 12.113281 22.097656 13.359375 20.964844 14.882812 20.964844 C 16.40625 20.964844 17.65625 22.097656 17.839844 23.570312 C 17.851562 23.449219 17.859375 23.324219 17.859375 23.199219 C 17.859375 21.546875 16.535156 20.21875 14.882812 20.21875 Z M 14.882812 20.21875 "/>
<path style=" stroke:none;fill-rule:nonzero;fill:rgb(0%,0%,0%);fill-opacity:0.235294;" d="M 20.878906 23.695312 C 20.851562 23.855469 20.839844 24.019531 20.839844 24.191406 C 20.839844 25.839844 22.164062 27.167969 23.816406 27.167969 C 25.464844 27.167969 26.792969 25.839844 26.792969 24.191406 C 26.792969 24.019531 26.777344 23.855469 26.75 23.695312 C 26.515625 25.105469 25.292969 26.175781 23.816406 26.175781 C 22.335938 26.175781 21.113281 25.105469 20.878906 23.695312 Z M 20.878906 23.695312 "/>
<path style=" stroke:none;fill-rule:nonzero;fill:rgb(0%,0%,0%);fill-opacity:0.235294;" d="M 29.808594 23.695312 C 29.78125 23.855469 29.769531 24.019531 29.769531 24.191406 C 29.769531 25.839844 31.097656 27.167969 32.746094 27.167969 C 34.394531 27.167969 35.722656 25.839844 35.722656 24.191406 C 35.722656 24.019531 35.707031 23.855469 35.679688 23.695312 C 35.445312 25.105469 34.226562 26.175781 32.746094 26.175781 C 31.265625 26.175781 30.042969 25.105469 29.808594 23.695312 Z M 29.808594 23.695312 "/>
<path style=" stroke:none;fill-rule:nonzero;fill:rgb(0%,0%,0%);fill-opacity:0.235294;" d="M 11.949219 23.695312 C 11.921875 23.855469 11.90625 24.019531 11.90625 24.191406 C 11.90625 25.839844 13.234375 27.167969 14.882812 27.167969 C 16.535156 27.167969 17.859375 25.839844 17.859375 24.191406 C 17.859375 24.019531 17.847656 23.855469 17.820312 23.695312 C 17.585938 25.105469 16.363281 26.175781 14.882812 26.175781 C 13.402344 26.175781 12.183594 25.105469 11.949219 23.695312 Z M 11.949219 23.695312 "/>
<path style="fill:none;stroke-width:3;stroke-linecap:round;stroke-linejoin:round;stroke:rgb(12.941177%,12.941177%,12.941177%);stroke-opacity:1;stroke-miterlimit:4;" d="M 254.017409 -64.181673 C 271.515738 -64.181673 285.764378 -49.933033 285.764378 -32.434704 C 285.764378 -14.894713 271.515738 -0.646073 254.017409 -0.646073 C 236.477418 -0.646073 222.270441 -14.894713 222.270441 -32.434704 C 222.270441 -49.933033 236.477418 -64.181673 254.017409 -64.181673 Z M 254.017409 -64.181673 " transform="matrix(0.093759,0,0,-0.093759,0,20.158175)"/>
<path style="fill:none;stroke-width:3;stroke-linecap:round;stroke-linejoin:round;stroke:rgb(12.941177%,12.941177%,12.941177%);stroke-opacity:1;stroke-miterlimit:4;" d="M 349.258314 -64.181673 C 366.798306 -64.181673 381.005282 -49.933033 381.005282 -32.434704 C 381.005282 -14.894713 366.798306 -0.646073 349.258314 -0.646073 C 331.718322 -0.646073 317.511346 -14.894713 317.511346 -32.434704 C 317.511346 -49.933033 331.718322 -64.181673 349.258314 -64.181673 Z M 349.258314 -64.181673 " transform="matrix(0.093759,0,0,-0.093759,0,20.158175)"/>
<path style="fill:none;stroke-width:3;stroke-linecap:round;stroke-linejoin:round;stroke:rgb(12.941177%,12.941177%,12.941177%);stroke-opacity:1;stroke-miterlimit:4;" d="M 158.734842 -64.181673 C 176.274833 -64.181673 190.48181 -49.933033 190.48181 -32.434704 C 190.48181 -14.894713 176.274833 -0.646073 158.734842 -0.646073 C 141.19485 -0.646073 126.987873 -14.894713 126.987873 -32.434704 C 126.987873 -49.933033 141.19485 -64.181673 158.734842 -64.181673 Z M 158.734842 -64.181673 " transform="matrix(0.093759,0,0,-0.093759,0,20.158175)"/>
</g>
</svg>
